online-zoo/images/logo-rs-school.svg

<svg width="141" height="50" viewBox="0 0 141 50" fill="none" xmlns="http://www.w3.org/2000/svg">
<path d="M70.2284 15.4402L76.9334 15.0249C77.0797 16.1004 77.3755 16.9192 77.821 17.4812C78.5487 18.3923 79.5859 18.8478 80.9325 18.8478C81.9374 18.8478 82.7127 18.6155 83.2585 18.1507C83.5084 17.9577 83.7115 17.712 83.8527 17.4316C83.9939 17.1511 84.0697 16.843 84.0746 16.5299C84.0705 16.2297 83.9998 15.934 83.8677 15.6636C83.7355 15.3932 83.545 15.1546 83.3095 14.9645C82.7994 14.5048 81.5965 14.0694 79.7006 13.6583C76.6095 12.9738 74.4051 12.0627 73.0874 10.9251C72.4462 10.3951 71.9342 9.72943 71.5893 8.97742C71.2445 8.22542 71.0757 7.40644 71.0955 6.58126C71.1004 5.41515 71.4554 4.27662 72.1157 3.30951C72.8698 2.21949 73.935 1.37507 75.1762 0.883374C76.5364 0.294458 78.4067 0 80.7871 0C83.7014 0 85.9237 0.535226 87.4539 1.60568C88.9842 2.67613 89.8947 4.37744 90.1854 6.70962L83.5416 7.09216C83.3716 6.08547 83.0009 5.3489 82.4296 4.88247C81.8583 4.41603 81.0762 4.18365 80.0832 4.18533C79.2645 4.18533 78.6473 4.35899 78.2342 4.70126C78.039 4.84935 77.8813 5.04003 77.7733 5.25835C77.6653 5.47667 77.6101 5.7167 77.6119 5.95963C77.618 6.14814 77.6671 6.33287 77.7554 6.50015C77.8437 6.66743 77.969 6.81299 78.1219 6.92606C78.4535 7.22303 79.2416 7.49987 80.4862 7.75658C83.5671 8.41093 85.7775 9.07367 87.1173 9.7448C88.4571 10.4159 89.4263 11.2473 90.0248 12.2389C90.6356 13.2448 90.9508 14.3985 90.9352 15.571C90.9426 16.9908 90.5208 18.3805 89.7238 19.5626C88.8943 20.7951 87.7142 21.7582 86.3317 22.331C84.878 22.9602 83.0468 23.2748 80.8381 23.2748C76.9598 23.2748 74.2733 22.5382 72.7788 21.0651C71.2843 19.5919 70.4341 17.717 70.2284 15.4402ZM1.59911 22.8973V0.380027H13.3464C15.5244 0.380027 17.189 0.563749 18.3401 0.931192C19.4739 1.28856 20.4542 2.00963 21.1251 2.97981C21.8554 4.05666 22.2271 5.33141 22.1887 6.62656C22.2182 7.75679 21.9361 8.87371 21.3725 9.85805C20.8317 10.7706 20.0658 11.5333 19.146 12.0753C18.3728 12.4962 17.5383 12.7967 16.6721 12.9662C17.3202 13.1546 17.9377 13.4334 18.5059 13.7942C18.9281 14.1406 19.3081 14.5341 19.6382 14.967C20.0097 15.3973 20.3385 15.8616 20.6202 16.3537L24.0326 22.8973H16.0676L12.3032 16.009C11.8255 15.118 11.4004 14.5392 11.028 14.2724C10.5206 13.9254 9.91612 13.7433 9.29883 13.7514H8.67143V22.8973H1.59911ZM8.67143 9.49816H11.6503C12.2808 9.45171 12.9056 9.34894 13.5172 9.19112C13.9743 9.10459 14.3819 8.85228 14.6598 8.48392C14.9537 8.11182 15.1102 7.65196 15.1036 7.18025C15.1228 6.86708 15.0696 6.5537 14.9481 6.26378C14.8266 5.97385 14.6399 5.71495 14.4022 5.50662C13.9363 5.11736 13.0599 4.92273 11.7727 4.92273H8.67143V9.49816ZM0 42.1654L6.70506 41.7526C6.85128 42.8281 7.14713 43.6469 7.5926 44.209C8.31182 45.12 9.35154 45.5756 10.7118 45.5756C11.7166 45.5756 12.492 45.3423 13.0378 44.8759C13.2877 44.6829 13.4907 44.4372 13.6319 44.1568C13.7732 43.8763 13.849 43.5683 13.8539 43.2551C13.8494 42.955 13.7786 42.6594 13.6465 42.3891C13.5143 42.1187 13.324 41.88 13.0888 41.6897C12.5787 41.23 11.3757 40.7954 9.47991 40.3861C6.3888 39.6981 4.18439 38.7871 2.86667 37.6529C2.22553 37.1222 1.71359 36.4561 1.36879 35.7037C1.02398 34.9513 0.85515 34.132 0.874794 33.3065C0.88044 32.1405 1.23538 31.0022 1.89496 30.0347C2.64906 28.9447 3.71428 28.1003 4.95547 27.6086C6.31569 27.0197 8.186 26.7252 10.5664 26.7252C13.4807 26.7252 15.7029 27.2604 17.2332 28.3309C18.7634 29.4013 19.6739 31.1027 19.9647 33.4348L13.3336 33.8199C13.1636 32.8132 12.7929 32.0758 12.2216 31.6077C11.6503 31.1396 10.869 30.9097 9.87778 30.9181C9.05994 30.9181 8.44359 31.0859 8.02872 31.4214C7.83357 31.5695 7.67582 31.7602 7.56785 31.9785C7.45989 32.1969 7.40463 32.4369 7.40642 32.6798C7.41223 32.8688 7.46111 33.054 7.54942 33.2217C7.63772 33.3895 7.76319 33.5354 7.91651 33.6488C8.24806 33.9457 9.03614 34.2217 10.2807 34.4768C13.3617 35.1311 15.572 35.7938 16.9118 36.465C18.2517 37.1361 19.2208 37.9675 19.8193 38.9591C20.4297 39.9651 20.745 41.1187 20.7298 42.2912C20.7375 43.711 20.3157 45.1008 19.5184 46.2828C18.6888 47.5152 17.5087 48.4784 16.1263 49.0512C14.6726 49.6804 12.8414 49.9949 10.6327 49.9949C6.75436 49.9949 4.06792 49.2584 2.57337 47.7853C1.07883 46.3121 0.221036 44.4388 0 42.1654ZM41.5719 40.4012L47.749 42.2434C47.4073 43.7898 46.739 45.2476 45.7877 46.5219C44.9208 47.6477 43.7806 48.5401 42.4722 49.1166C41.1493 49.6988 39.4661 49.9899 37.4223 49.9899C34.9433 49.9899 32.9183 49.6351 31.3472 48.9253C29.7762 48.2156 28.4159 46.9648 27.2666 45.1729C26.124 43.3826 25.5535 41.0916 25.5552 38.2997C25.5552 34.5783 26.5584 31.7167 28.5647 29.7151C30.571 27.7135 33.4105 26.7135 37.0831 26.7151C39.9583 26.7151 42.2171 27.289 43.8596 28.4366C45.5021 29.5842 46.7229 31.3459 47.522 33.7217L41.299 35.0883C41.1528 34.5527 40.9222 34.0431 40.6155 33.5783C40.2385 33.0619 39.743 32.641 39.1694 32.3501C38.5749 32.0578 37.9181 31.9103 37.254 31.9198C35.6574 31.9198 34.4341 32.554 33.5839 33.8224C32.9378 34.7637 32.6156 36.241 32.6173 38.2544C32.6173 40.7476 33.0016 42.4573 33.7701 43.3835C34.5387 44.3096 35.6175 44.7719 37.0066 44.7702C38.3532 44.7702 39.3734 44.3969 40.0671 43.6503C40.7608 42.9036 41.2624 41.8206 41.5719 40.4012ZM53.1788 27.1052H60.2256V34.9776H67.9279V27.1052H75.0053V49.6124H67.9279V40.5144H60.2256V49.62H53.1788V27.1052ZM79.3921 38.3727C79.3921 34.7016 80.4292 31.8409 82.5036 29.7906C84.5779 27.7403 87.4684 26.7168 91.175 26.7202C94.97 26.7202 97.8945 27.7269 99.9484 29.7403C102.002 31.7537 103.032 34.5699 103.037 38.1889C103.037 40.8214 102.588 42.9791 101.69 44.662C100.817 46.3227 99.4631 47.69 97.801 48.5906C96.1007 49.5268 93.9873 49.9949 91.4606 49.9949C88.8898 49.9949 86.7645 49.5906 85.0846 48.7819C83.3587 47.9379 81.9305 46.6004 80.9861 44.9439C79.9217 43.1956 79.3904 41.0052 79.3921 38.3727ZM86.4389 38.4054C86.4389 40.6788 86.8639 42.3114 87.7141 43.303C88.5642 44.2945 89.7289 44.7903 91.2081 44.7903C92.7231 44.7903 93.8954 44.3046 94.7252 43.3331C95.5549 42.3617 95.9698 40.6168 95.9698 38.0983C95.9698 35.9792 95.5362 34.4306 94.6691 33.4524C93.8019 32.4743 92.627 31.986 91.1444 31.9877C90.4997 31.9648 89.8582 32.0861 89.2677 32.3423C88.6772 32.5986 88.1531 32.9832 87.7345 33.4675C86.8724 34.4742 86.4406 36.1202 86.4389 38.4054Z" fill="black"/>
<path d="M100.048 38.3722C100.048 34.7011 101.085 31.8405 103.159 29.7902C105.234 27.7399 108.124 26.7164 111.831 26.7197C115.629 26.7197 118.555 27.7264 120.607 29.7398C122.659 31.7532 123.685 34.5703 123.685 38.191C123.685 40.8235 123.237 42.9812 122.341 44.6641C121.467 46.3242 120.113 47.6914 118.452 48.5927C116.751 49.5289 114.638 49.997 112.111 49.997C109.539 49.997 107.413 49.5927 105.735 48.784C104.009 47.9393 102.58 46.6021 101.634 44.9459C100.577 43.196 100.048 41.0047 100.048 38.3722ZM107.097 38.4049C107.097 40.6784 107.522 42.3109 108.372 43.3025C109.223 44.2941 110.389 44.7907 111.872 44.7924C113.387 44.7924 114.559 44.3067 115.389 43.3352C116.218 42.3638 116.633 40.6188 116.633 38.1004C116.633 35.9813 116.201 34.4327 115.335 33.4545C114.47 32.4763 113.295 31.9881 111.81 31.9898C111.165 31.9653 110.522 32.0854 109.93 32.3413C109.338 32.5972 108.812 32.9821 108.393 33.4671C107.527 34.4738 107.096 36.1197 107.097 38.4049Z" fill="black"/>
<path d="M122.951 27.105H130V44.0703H141V49.6071H122.951V27.105Z" fill="black"/>
</svg>

<svg width="141" height="50" fill="none" xmlns="http://www.w3.org/2000/svg"><path d="M70.228 15.44l6.705-.415c.147 1.075.442 1.894.888 2.456.728.911 1.765 1.367 3.112 1.367 1.004 0 1.78-.232 2.325-.697a2.102 2.102 0 00.817-1.621 2.037 2.037 0 00-.766-1.566c-.51-.46-1.712-.895-3.608-1.306-3.091-.684-5.296-1.595-6.614-2.733a5.506 5.506 0 01-1.498-1.948 5.435 5.435 0 01-.493-2.396 5.844 5.844 0 011.02-3.271 6.735 6.735 0 013.06-2.427C76.536.294 78.406 0 80.787 0c2.914 0 5.137.535 6.667 1.606 1.53 1.07 2.44 2.771 2.731 5.104l-6.643.382c-.17-1.007-.541-1.743-1.112-2.21-.572-.466-1.354-.698-2.347-.697-.819 0-1.436.174-1.849.516a1.555 1.555 0 00-.622 1.258 1.244 1.244 0 00.51.967c.332.297 1.12.574 2.364.83 3.081.655 5.291 1.318 6.631 1.989 1.34.67 2.31 1.502 2.908 2.494.61 1.006.926 2.16.91 3.332a7.072 7.072 0 01-1.211 3.992 7.585 7.585 0 01-3.392 2.768c-1.454.63-3.285.944-5.494.944-3.878 0-6.565-.737-8.06-2.21-1.494-1.473-2.344-3.348-2.55-5.625zM1.6 22.897V.38h11.747c2.178 0 3.843.184 4.994.551a5.332 5.332 0 012.785 2.049 6.17 6.17 0 011.064 3.647 6.177 6.177 0 01-.817 3.231 6.31 6.31 0 01-2.226 2.217 8.648 8.648 0 01-2.474.891 7.138 7.138 0 011.834.828c.422.347.802.74 1.132 1.173.372.43.7.895.982 1.387l3.413 6.543h-7.965l-3.765-6.888c-.478-.891-.903-1.47-1.275-1.737a2.994 2.994 0 00-1.73-.52h-.627v9.145H1.6zM8.671 9.498h2.98c.63-.046 1.255-.15 1.866-.307a1.865 1.865 0 001.143-.707 2.06 2.06 0 00.444-1.304 2.047 2.047 0 00-.702-1.673c-.466-.39-1.342-.584-2.63-.584h-3.1v4.575zM0 42.165l6.705-.412c.146 1.075.442 1.894.888 2.456.719.911 1.759 1.367 3.119 1.367 1.005 0 1.78-.234 2.326-.7a2.1 2.1 0 00.816-1.62 2.042 2.042 0 00-.765-1.566c-.51-.46-1.713-.895-3.61-1.304-3.09-.688-5.295-1.599-6.612-2.733a5.513 5.513 0 01-1.498-1.95 5.442 5.442 0 01-.494-2.397 5.857 5.857 0 011.02-3.271 6.735 6.735 0 013.06-2.426c1.36-.59 3.231-.884 5.611-.884 2.915 0 5.137.535 6.667 1.606 1.53 1.07 2.44 2.772 2.732 5.104l-6.631.385c-.17-1.007-.541-1.744-1.112-2.212-.572-.468-1.353-.698-2.344-.69-.818 0-1.434.168-1.85.503a1.556 1.556 0 00-.622 1.258 1.245 1.245 0 00.51.97c.332.297 1.12.573 2.365.828 3.08.654 5.291 1.317 6.63 1.988 1.34.671 2.31 1.502 2.908 2.494.61 1.006.926 2.16.91 3.332a7.067 7.067 0 01-1.21 3.992 7.587 7.587 0 01-3.393 2.768c-1.453.63-3.285.944-5.493.944-3.879 0-6.565-.737-8.06-2.21C1.08 46.312.221 44.44 0 42.165zm41.572-1.764l6.177 1.842a11.187 11.187 0 01-1.961 4.279 8.517 8.517 0 01-3.316 2.595c-1.323.582-3.006.873-5.05.873-2.479 0-4.504-.355-6.075-1.065-1.57-.71-2.931-1.96-4.08-3.752-1.143-1.79-1.713-4.081-1.712-6.873 0-3.722 1.003-6.583 3.01-8.585 2.006-2.002 4.845-3.002 8.518-3 2.875 0 5.134.574 6.777 1.722 1.642 1.147 2.863 2.909 3.662 5.285l-6.223 1.366a5.253 5.253 0 00-.684-1.51 4.067 4.067 0 00-1.446-1.228 4.206 4.206 0 00-1.915-.43c-1.597 0-2.82.634-3.67 1.902-.646.942-.968 2.419-.967 4.432 0 2.494.385 4.203 1.153 5.13.769.926 1.847 1.388 3.237 1.386 1.346 0 2.366-.373 3.06-1.12.694-.746 1.195-1.83 1.505-3.249zm11.607-13.296h7.047v7.873h7.702v-7.873h7.077v22.507h-7.077v-9.098h-7.702v9.106h-7.047V27.105zm26.213 11.268c0-3.671 1.037-6.532 3.112-8.582 2.074-2.05 4.964-3.074 8.671-3.07 3.795 0 6.72 1.006 8.773 3.02 2.054 2.013 3.084 4.829 3.089 8.448 0 2.632-.449 4.79-1.347 6.473a9.503 9.503 0 01-3.889 3.929c-1.7.936-3.814 1.404-6.34 1.404-2.571 0-4.697-.404-6.376-1.213a9.534 9.534 0 01-4.099-3.838c-1.064-1.748-1.596-3.939-1.594-6.571zm7.047.032c0 2.274.425 3.906 1.275 4.898.85.992 2.015 1.487 3.494 1.487 1.515 0 2.687-.485 3.517-1.457.83-.971 1.245-2.716 1.245-5.235 0-2.119-.434-3.667-1.3-4.646-.868-.978-2.043-1.466-3.526-1.464a4.33 4.33 0 00-1.876.354 4.289 4.289 0 00-1.534 1.126c-.862 1.006-1.293 2.652-1.295 4.937z" fill="#000"/><path d="M100.048 38.372c0-3.67 1.037-6.532 3.111-8.582 2.075-2.05 4.965-3.074 8.672-3.07 3.798 0 6.724 1.006 8.776 3.02 2.052 2.013 3.078 4.83 3.078 8.451 0 2.633-.448 4.79-1.344 6.473a9.523 9.523 0 01-3.889 3.929c-1.701.936-3.814 1.404-6.341 1.404-2.572 0-4.698-.404-6.376-1.213a9.555 9.555 0 01-4.101-3.838c-1.057-1.75-1.586-3.941-1.586-6.574zm7.049.033c0 2.273.425 3.906 1.275 4.898.851.991 2.017 1.488 3.5 1.49 1.515 0 2.687-.486 3.517-1.458.829-.971 1.244-2.716 1.244-5.235 0-2.119-.432-3.667-1.298-4.645-.865-.979-2.04-1.467-3.525-1.465a4.326 4.326 0 00-1.88.351 4.269 4.269 0 00-1.537 1.126c-.866 1.007-1.297 2.653-1.296 4.938z" fill="#000"/><path d="M122.951 27.105H130V44.07h11v5.537h-18.049V27.105z" fill="#000"/></svg>
